src/asset/24px/camera.svg

<svg width="24" height="24" viewBox="0 0 24 24" fill="none" xmlns="http://www.w3.org/2000/svg">
<path fill-rule="evenodd" clip-rule="evenodd" d="M8 2.99973C8 2.44744 7.55228 1.99973 7 1.99973C6.44772 1.99973 6 2.44744 6 2.99973V3.99973H5C3.34315 3.99973 2 5.34287 2 6.99973V16.9997C2 18.6566 3.34315 19.9997 5 19.9997H19C20.6569 19.9997 22 18.6566 22 16.9997V6.99973C22 5.34287 20.6569 3.99973 19 3.99973H8V2.99973ZM4 6.99973C4 6.44744 4.44772 5.99973 5 5.99973H19C19.5523 5.99973 20 6.44744 20 6.99973V8.99973H14.6458C13.9407 8.37736 13.0144 7.99973 12 7.99973C10.9856 7.99973 10.0593 8.37736 9.35418 8.99973H4V6.99973ZM8.12602 10.9997H4V16.9997C4 17.552 4.44772 17.9997 5 17.9997H19C19.5523 17.9997 20 17.552 20 16.9997V10.9997H15.874C15.9562 11.3193 16 11.6544 16 11.9997C16 14.2089 14.2091 15.9997 12 15.9997C9.79086 15.9997 8 14.2089 8 11.9997C8 11.6544 8.04375 11.3193 8.12602 10.9997ZM10 11.9997C10 10.8952 10.8954 9.99973 12 9.99973C13.1046 9.99973 14 10.8952 14 11.9997C14 13.1043 13.1046 13.9997 12 13.9997C10.8954 13.9997 10 13.1043 10 11.9997Z" fill="currentColor"/>
</svg>

<svg width="24" height="24" fill="none" xmlns="http://www.w3.org/2000/svg"><path fill-rule="evenodd" clip-rule="evenodd" d="M8 3a1 1 0 10-2 0v1H5a3 3 0 00-3 3v10a3 3 0 003 3h14a3 3 0 003-3V7a3 3 0 00-3-3H8V3zM4 7a1 1 0 011-1h14a1 1 0 011 1v2h-5.354A3.985 3.985 0 0012 8c-1.014 0-1.94.377-2.646 1H4V7zm4.126 4H4v6a1 1 0 001 1h14a1 1 0 001-1v-6h-4.126a4 4 0 11-7.748 0zM10 12a2 2 0 114 0 2 2 0 01-4 0z" fill="currentColor"/></svg>
